symbols/web/toys/materialsymbolsoutlined/toys_wght500_48px.svg

<svg xmlns="http://www.w3.org/2000/svg" height="48" width="48"><path d="M13.9 40.2q-2.3 0-4.05-1.675t-1.9-4.075q-1.95-1.2-3.025-3t-1.075-4q0-2.55 1.5-4.65 1.5-2.1 3.95-2.7l-4-4.2-.95 1q-.45.5-1.075.5T2.2 16.9q-.45-.45-.45-1.05 0-.6.45-1.1l4.05-4.2q.45-.45 1.075-.45t1.075.45q.45.5.45 1.1 0 .6-.45 1.05l-.95 1.05 3.65 3.9 1.95-5.9q.6-1.75 2.025-2.85Q16.5 7.8 18.25 7.8h11.6q1.85 0 3.275 1.1Q34.55 10 35.1 11.75l2.45 8.1q2.85.35 4.775 2.45 1.925 2.1 1.925 5.15 0 2.2-1.075 4.025Q42.1 33.3 40.2 34.5q-.2 2.4-1.95 4.05t-4 1.65q-2.15 0-3.75-1.45t-2-3.55h-8.85q-.45 2.1-2.05 3.55-1.6 1.45-3.7 1.45Zm-.05-20.45h8.6v-8.7h-4.1q-.75 0-1.325.475T16.2 12.7Zm11.6 0h8.65l-2.15-7q-.25-.75-.825-1.225-.575-.475-1.275-.475h-4.4Zm-5.8 12.2h8.85q.55-1.85 2.175-2.925Q32.3 27.95 34.2 27.95q1.6 0 2.975.825T39.4 30.95q.85-.6 1.2-1.55.35-.95.35-1.95 0-1.85-1.275-3.15Q38.4 23 36.5 23H11.55q-1.85 0-3.125 1.3T7.15 27.45q0 1 .375 1.95T8.7 30.95q.8-1.4 2.2-2.2 1.4-.8 3-.8 1.9 0 3.525 1.075t2.225 2.925Zm-5.75 5.1q1.25 0 2.125-.85t.875-2.15q0-1.25-.875-2.125T13.9 31.05q-1.3 0-2.15.875-.85.875-.85 2.125 0 1.3.85 2.15.85.85 2.15.85Zm20.35 0q1.25 0 2.125-.85t.875-2.15q0-1.25-.875-2.125t-2.125-.875q-1.3 0-2.15.875-.85.875-.85 2.125 0 1.3.85 2.15.85.85 2.15.85Zm-10.2-9.6Z"/></svg>

<svg xmlns="http://www.w3.org/2000/svg" height="48" width="48"><path d="M13.9 40.2Q11.6 40.2 9.85 38.525Q8.1 36.85 7.95 34.45Q6 33.25 4.925 31.45Q3.85 29.65 3.85 27.45Q3.85 24.9 5.35 22.8Q6.85 20.7 9.3 20.1L5.3 15.9L4.35 16.9Q3.9 17.4 3.275 17.4Q2.65 17.4 2.2 16.9Q1.75 16.45 1.75 15.85Q1.75 15.25 2.2 14.75L6.25 10.55Q6.7 10.1 7.325 10.1Q7.95 10.1 8.4 10.55Q8.85 11.05 8.85 11.65Q8.85 12.25 8.4 12.7L7.45 13.75L11.1 17.65L13.05 11.75Q13.65 10 15.075 8.9Q16.5 7.8 18.25 7.8H29.85Q31.7 7.8 33.125 8.9Q34.55 10 35.1 11.75L37.55 19.85Q40.4 20.2 42.325 22.3Q44.25 24.4 44.25 27.45Q44.25 29.65 43.175 31.475Q42.1 33.3 40.2 34.5Q40 36.9 38.25 38.55Q36.5 40.2 34.25 40.2Q32.1 40.2 30.5 38.75Q28.9 37.3 28.5 35.2H19.65Q19.2 37.3 17.6 38.75Q16 40.2 13.9 40.2ZM13.85 19.75H22.45V11.05H18.35Q17.6 11.05 17.025 11.525Q16.45 12 16.2 12.7ZM25.45 19.75H34.1L31.95 12.75Q31.7 12 31.125 11.525Q30.55 11.05 29.85 11.05H25.45ZM19.65 31.95H28.5Q29.05 30.1 30.675 29.025Q32.3 27.95 34.2 27.95Q35.8 27.95 37.175 28.775Q38.55 29.6 39.4 30.95Q40.25 30.35 40.6 29.4Q40.95 28.45 40.95 27.45Q40.95 25.6 39.675 24.3Q38.4 23 36.5 23H11.55Q9.7 23 8.425 24.3Q7.15 25.6 7.15 27.45Q7.15 28.45 7.525 29.4Q7.9 30.35 8.7 30.95Q9.5 29.55 10.9 28.75Q12.3 27.95 13.9 27.95Q15.8 27.95 17.425 29.025Q19.05 30.1 19.65 31.95ZM13.9 37.05Q15.15 37.05 16.025 36.2Q16.9 35.35 16.9 34.05Q16.9 32.8 16.025 31.925Q15.15 31.05 13.9 31.05Q12.6 31.05 11.75 31.925Q10.9 32.8 10.9 34.05Q10.9 35.35 11.75 36.2Q12.6 37.05 13.9 37.05ZM34.25 37.05Q35.5 37.05 36.375 36.2Q37.25 35.35 37.25 34.05Q37.25 32.8 36.375 31.925Q35.5 31.05 34.25 31.05Q32.95 31.05 32.1 31.925Q31.25 32.8 31.25 34.05Q31.25 35.35 32.1 36.2Q32.95 37.05 34.25 37.05ZM24.05 27.45Q24.05 27.45 24.05 27.45Q24.05 27.45 24.05 27.45Q24.05 27.45 24.05 27.45Q24.05 27.45 24.05 27.45Q24.05 27.45 24.05 27.45Q24.05 27.45 24.05 27.45Q24.05 27.45 24.05 27.45Q24.05 27.45 24.05 27.45Q24.05 27.45 24.05 27.45Q24.05 27.45 24.05 27.45Q24.05 27.45 24.05 27.45Q24.05 27.45 24.05 27.45Q24.05 27.45 24.05 27.45Q24.05 27.45 24.05 27.45Q24.05 27.45 24.05 27.45Q24.05 27.45 24.05 27.45Z"/></svg>
